X: 21675
T: Kilnamona
R: barndance
M: 4/4
K: Gmajor
D4 G>AB<c|:d>GB>d G>AB>c|d2 c2 A2- A>B|c2 A2 e2- e>c|(3efe d2 B>AB<c|
(3ded B>d G>AB>c|(3ded c2 A2- A>B|(3ccc A2 (3eee d2|1 G4 G>AB<c:|2 G4- G>dg<a||
|:(3bc’b g>b b>ag>b|a2 a>b a>ge>f|g>ag>e (3ddd B>d|e2 a>e (3aba g>a|
b2 b>c’ (3bc’b g>b|a>Aa>b a>ge>f|g>ag>e (3ddd B>d|1 e>Af>A g>dg<a:|2 e>Af>A g>fg<e||

